!!!COM: Palestrina, Giovanni Perluigi da
!!!OPR: Io mi son giovinetta (1570)
!!!OTL: Gloria
**kern	**kern	**kern	**kern
*Ibass	*Itenor	*Icalto	*Icant
!Bassus	!Tenor	!Altus	!Cantus
*clefF4	*clefGv2	*clefG2	*clefG2
*k[b-]	*k[b-]	*k[b-]	*k[b-]
*G:dor	*G:dor	*G:dor	*G:dor
*M4/2	*M4/2	*M4/2	*M4/2
=1	=1	=1	=1
0r	0r	1r	1.dd
.	.	[1g	.
.	.	.	2dd
=2	=2	=2	=2
0r	0r	2g]	2dd
.	.	2g	2dd
.	.	2g	2.ee
.	.	2g	.
.	.	.	4dd
=3	=3	=3	=3
0r	0r	2.a	2cc
.	.	.	1ff
.	.	4g	.
.	.	2f	.
.	.	2g	[2ee
=4	=4	=4	=4
0r	0r	2f	4ee]
.	.	.	4dd
.	.	2g	1dd
.	.	1e	.
.	.	.	2cc#
=5	=5	=5	=5
0r	1r	2d	2dd
.	.	1g	2b-
.	[1d	.	1a
.	.	2f#	.
=6	=6	=6	=6
1.G	2d]	1g	0g
.	2d	.	.
.	2d	1r	.
2G	2d	.	.
=7	=7	=7	=7
2G	2.e	0r	0r
2G	.	.	.
.	4d	.	.
2.A	2c	.	.
.	[2f	.	.
4G	.	.	.
=8	=8	=8	=8
2F	2f]	0r	0r
2G	2.e	.	.
2F	.	.	.
.	4d	.	.
2G	[2d	.	.
=9	=9	=9	=9
1E	2d]	1g	0r
.	2c#	.	.
2D	2d	2f	.
[2G	2B-	2g	.
=10	=10	=10	=10
2G]	1A	1a	1r
2F#	.	.	.
1G	1G	1b-	1dd
=11	=11	=11	=11
0r	0r	2a	2cc
.	.	2f	2dd
.	.	2g	1ee
.	.	2a	.
=12	=12	=12	=12
0r	0r	4d	1ff
.	.	4e	.
.	.	4f	.
.	.	4g	.
.	.	2.a	2ee
.	.	.	2cc
.	.	4g	.
=13	=13	=13	=13
1B-	0r	4f	2dd
.	.	4e	.
.	.	2d	2.ff
2A	.	1f	.
.	.	.	4ee
2F	.	.	[2dd
=14	=14	=14	=14
2G	1r	1e	2dd]
2A	.	.	2cc#
2D	2r	1d	2dd
[2G	[2d	.	[2b-
=15	=15	=15	=15
2G]	2d]	2r	2b-]
2G	2d	1g	2b-
1G	1d	.	1b-
.	.	2g	.
=16	=16	=16	=16
1C	1e-	2g	1cc
.	.	2g	.
1D	2d	2f#	2a
.	2d	2f#	2dd
=17	=17	=17	=17
0r	2e-	2g	2b-
.	2c	2a	2cc
.	2B-	2.b-	2.dd
.	4G	.	.
.	4A	4a	4cc
=18	=18	=18	=18
2r	4B-	2g	2b-
.	4c	.	.
2D	1d	1f	2.a
2BB-	.	.	.
.	.	.	4g
2C	4c	2e-	[2g
.	4B-	.	.
=19	=19	=19	=19
1D	0A	[0d	2g]
.	.	.	4f
.	.	.	4e
1D	.	.	1f#
=20	=20	=20	=20
0G	2G	1d]	0g
.	2d	.	.
.	2d	2r	.
.	2B-	2g	.
=21	=21	=21	=21
0r	2e-	2g	1r
.	4d	2f	.
.	4c	.	.
.	2d	1b-	2r
.	2B-	.	2g
=22	=22	=22	=22
1r	2c	2a	2g
.	2d	2a	2f
2r	1G	1g	1b-
2G	.	.	.
=23	=23	=23	=23
2G	1r	0d	2b-
2F	.	.	2a
1B-	2r	.	4g
.	.	.	4f
.	[2d	.	4f
.	.	.	8e
.	.	.	8d
=24	=24	=24	=24
2A	2d]	1r	1e
2A	2c	.	.
4D	1f	2r	1d
4E	.	.	.
4F	.	[2d	.
4G	.	.	.
=25	=25	=25	=25
1A	1e	2d]	1r
.	.	2c	.
1D	2.d	2.f	2r
.	.	.	[2dd
.	4c	4e	.
=26	=26	=26	=26
0r	4d	4f	2dd]
.	4e	4g	.
.	2.f	1a	2cc
.	.	.	1ff
.	4e	.	.
.	2d	2f	.
=27	=27	=27	=27
0r	2c	2g	2ee
.	2d	2f	2.ff
.	1B-	1d	.
.	.	.	4ee
.	.	.	[2dd
=28	=28	=28	=28
1r	1A	1e	2dd]
.	.	.	2cc
2r	1d	2f	2a
[2G	.	[2g	[2b-
=29	=29	=29	=29
2G]	1r	2g]	4b-]
.	.	.	4g
2F	.	2c	2.a
1B-	2r	2.d	.
.	.	.	4f
.	[2d	.	2g
.	.	4e	.
=30	=30	=30	=30
1A	2d]	2f	[0a
.	2c	2e	.
2r	1f	1d	.
[2d	.	.	.
=31	=31	=31	=31
2d]	2e	1A	1a]
2c	1a	.	.
2A	.	1r	1r
2B-	2g	.	.
=32	=32	=32	=32
4c	2e	0r	0r
4B-	.	.	.
4A	2.f	.	.
4G	.	.	.
2F	.	.	.
.	4e	.	.
2G	[2d	.	.
=33	=33	=33	=33
1E	2d]	1r	1r
.	2c#	.	.
1D	1d	2r	2r
.	.	2d	2dd
=34	=34	=34	=34
0r	0r	2e	2cc#
.	.	2f	2dd
.	.	1g	1b-
=35	=35	=35	=35
1d	2r	1f	0a
.	2d	.	.
2c#	2e	1r	.
2d	2f	.	.
=36	=36	=36	=36
1B-	1g	2r	2r
.	.	2d	2dd
2A	1a	2e	2cc#
2d	.	2f	2dd
=37	=37	=37	=37
4G	2r	1g	1b-
4A	.	.	.
4B-	2.d	.	.
4c	.	.	.
[1d	.	2f	2a
.	4e	.	.
.	2f	4d	[2ff
.	.	4e	.
=38	=38	=38	=38
2d]	2d	4f	2ff]
.	.	4g	.
2c	2e	1a	2ee
1B-	2f	.	1dd
.	2d	2g	.
=39	=39	=39	=39
0A	1e	1a	[0cc#
.	2r	1a	.
.	[2e	.	.
=40	=40	=40	=40
1A	2e]	2r	1cc#]
.	2e	1a	.
1D	1f	.	2r
.	.	2a	[2dd
=41	=41	=41	=41
1G	2.B-	1b-	2dd]
.	.	.	2dd
.	4c	.	.
1D	1d	2a	1ff
.	.	2f	.
=42	=42	=42	=42
0r	1A	2a	2ee
.	.	2a	2cc
.	2c	2g	2ee
.	2c	[2cc	2ee
=43	=43	=43	=43
2r	1G	2cc]	1dd
1G	.	4b-	.
.	.	4a	.
.	1r	2.b-	4g
.	.	.	4a
2G	.	.	4b-
.	.	8a	4cc
.	.	8g	.
=44	=44	=44	=44
1B-	0r	2f	4dd
.	.	.	4ee
.	.	2d	2.ff
2A	.	1f	.
.	.	.	4ee
2F	.	.	[2dd
=45	=45	=45	=45
2A	0r	2e	4dd]
.	.	.	4cc
2A	.	2c	1cc
[1G	.	1d	.
.	.	.	4b-
.	.	.	4a
=46	=46	=46	=46
1G]	2r	1g	2b-
.	1d	.	2b-
1r	.	2.f	2a
.	2d	.	[2a
.	.	4e	.
=47	=47	=47	=47
0r	1f	2d	2a]
.	.	2d	2a
.	2e	2A	1cc
.	2c	[2a	.
=48	=48	=48	=48
1r	2e-	4a]	2b-
.	.	4g	.
.	2e-	1g	2g
2r	1d	.	2b-
[2D	.	4f	2a
.	.	4e	.
=49	=49	=49	=49
2D]	2r	2.f	4d
.	.	.	4e
2D	1A	.	4f
.	.	4e	4g
1F	.	2d	4a
.	.	.	4b-
.	2A	[2c	[2cc
=50	=50	=50	=50
2E	1c	4c]	4cc]
.	.	4d	4b-
2C	.	1e-	2.a
2E-	2B-	.	.
.	.	.	4g
2E-	2G	2c	[2g
=51	=51	=51	=51
0D	1B-	[0d	2g]
.	.	.	4f
.	.	.	4e
.	1A	.	1f#
=52	=52	=52	=52
0G	0G	0d]	0g
*	*	*	*-
!! Domine
*Icalto	*Icant	*Icant
!Altus	!Cantus 2	!Cantus 1
*clefG2	*clefG2	*clefG2
*k[b-]	*k[b-]	*k[b-]
*G:dor	*G:dor	*G:dor
*M4/2	*M4/2	*M4/2
=53	=53	=53
1g	0r	0r
2g	.	.
2g	.	.
=54	=54	=54
1g	1dd	0r
2f	2dd	.
[2g	2dd	.
=55	=55	=55
2g]	1dd	0r
2f	.	.
2e	1cc	.
2e	.	.
=56	=56	=56
4d	1.dd	0r
4c	.	.
4d	.	.
4e	.	.
4f	.	.
4g	.	.
4a	2cc	.
4f	.	.
=57	=57	=57
1g	2b-	1dd
.	2b-	.
2d	2a	2dd
[2g	[2b-	2dd
=58	=58	=58
4g]	4b-]	1dd
4f	4a	.
2d	2f	.
2e	2g	1cc
2f	2a	.
=59	=59	=59
2.B-	2.b-	1.dd
4c	4a	.
4d	4f	.
4e	4g	.
2f	[2a	2cc
=60	=60	=60
1g	4a]	2b-
.	4g	.
.	1g	2b-
1d	.	2a
.	2f#	2dd
=61	=61	=61
2r	1g	2dd
2g	.	2dd
2g	2r	1dd
2g	2dd	.
=62	=62	=62
1g	2dd	2.b-
.	2dd	.
.	.	4g
2f#	1dd	2a
[2g	.	2b-
=63	=63	=63
2g]	2b-	2g
2f	2.cc	2.a
2e-	.	.
.	4b-	4g
2e-	2g	[2g
=64	=64	=64
1d	2a	2g]
.	2a	2f#
[1g	1g	1g
=65	=65	=65
1g]	1.dd	1.b-
1r	.	.
.	2cc	2a
=66	=66	=66
1r	2b-	2g
.	2a	2f
2r	[1g	2.b-
[2b-	.	.
.	.	4cc
=67	=67	=67
2b-]	2g]	1dd
2a	2f	.
2g	2b-	2r
2f	2a	[2dd
=68	=68	=68
1e	1g	2dd]
.	.	2cc
1d	1r	2b-
.	.	2a
=69	=69	=69
1.b-	2r	4g
.	.	4a
.	1dd	4b-
.	.	4cc
.	.	4dd
.	.	4ee
2a	2cc	4ff
.	.	4ee
=70	=70	=70
2g	2b-	4ee
.	.	4dd
2f	2a	1dd
1e	2.g	.
.	.	2cc#
.	4a	.
=71	=71	=71
1.d	4b-	1.dd
.	4cc	.
.	4dd	.
.	4ee	.
.	2ff	.
2e	[2ee	4cc
.	.	4b-
=72	=72	=72
2f	4ee]	2a
.	4dd	.
2g	1dd	2b-
1e	.	2.g
.	2cc#	.
.	.	4a
=73	=73	=73
1d	[0dd	2b-
.	.	2a
2r	.	4g
.	.	4f
2g	.	2b-
=74	=74	=74
2g	0dd]	1a
2f	.	.
1b-	.	2r
.	.	2dd
=75	=75	=75
1a	0r	2dd
.	.	2cc
2r	.	1ff
2a	.	.
=76	=76	=76
2g	0r	1ee
2.a	.	.
.	.	2r
4g	.	.
4f	.	2dd
4d	.	.
=77	=77	=77
2e	0r	2cc
2d	.	2.dd
2r	.	.
.	.	4cc
2g	.	4b-
.	.	4g
=78	=78	=78
2f	2r	2a
2.g	2dd	4g
.	.	4a
.	2dd	4b-
4f	.	4a
4e	2cc	[2cc
4c	.	.
=79	=79	=79
1d	1ff	2cc]
.	.	2b
2c	1ee	1cc
[2cc	.	.
=80	=80	=80
2cc]	2r	1g
2b-	2dd	.
2a	2cc	1r
2b-	[2dd	.
=81	=81	=81
1g	4dd]	2r
.	4cc	.
.	4b-	2dd
.	4g	.
1r	2a	2cc
.	2g	[2dd
=82	=82	=82
1g	2.b-	4dd]
.	.	4cc
.	.	4b-
.	4cc	4g
2f	1dd	2a
[2g	.	4g
.	.	4a
=83	=83	=83
4g]	1r	4b-
4f	.	4a
4e	.	2.cc
4c	.	.
2.d	2r	.
.	.	4b-
.	2dd	2b-
4e	.	.
=84	=84	=84
2f	2cc	2a
2B-	2.dd	2.b-
1e-	.	.
.	4cc	4a
.	4b-	[2g
.	4g	.
=85	=85	=85
1d	1a	2g]
.	.	2f#
2r	2g	1g
[2g	2dd	.
=86	=86	=86
2g]	2b-	0r
2e	2cc	.
2f	2.dd	.
[2g	.	.
.	4cc	.
=87	=87	=87
4g]	2b-	1dd
4f	.	.
2d	2a	.
1e-	1g	2b-
.	.	2cc
=88	=88	=88
1B-	2f	2.dd
.	4b-	.
.	4cc	4cc
2r	4dd	2b-
.	4ee	.
2d	[2ff	2a
=89	=89	=89
2B-	2ff]	1g
2c	2ee	.
1d	1ff	[1f
=90	=90	=90
2.B-	2r	1f]
.	2dd	.
4c	.	.
2d	2b-	1r
2e	2cc	.
=91	=91	=91
2f	2.dd	1r
2.g	.	.
.	4cc	.
.	2b-	1dd
4f	.	.
2d	[2a	.
=92	=92	=92
1e-	4a]	2b-
.	4g	.
.	1g	2cc
1d	.	2.dd
.	2f#	.
.	.	4cc
=93	=93	=93
2r	2g	2b-
2d	2f	2.a
2.B-	1b-	.
.	.	4g
.	.	[2g
4c	.	.
=94	=94	=94
1d	1a	2g]
.	.	2f#
1G	1g	2g
.	.	2dd
=95	=95	=95
2r	1dd	2.b-
2.g	.	.
.	.	4cc
.	2b-	2dd
4f	.	.
4e-	[2cc	[2ee-
4d	.	.
=96	=96	=96
2c	2cc]	2ee-]
2B	2dd	2dd
1c	1ee-	1cc
=97	=97	=97
0g	0dd	0b
*-	*-	*-
!! Qui tollis
**kern	**kern	**kern	**kern
*Ibass	*Itenor	*Icalto	*Icant
!Bassus	!Tenor	!Altus	!Cantus
*clefF4	*clefGv2	*clefG2	*clefG2
*k[b-]	*k[b-]	*k[b-]	*k[b-]
*G:dor	*G:dor	*G:dor	*G:dor
*M4/2	*M4/2	*M4/2	*M4/2
=98	=98	=98	=98
0r	0r	1g	1r
.	.	1b-	1dd
=99	=99	=99	=99
0r	0r	2b-	1ff
.	.	2b-	.
.	.	2a	2ff
.	.	2f	2ff
=100	=100	=100	=100
0r	0r	1a	2ee
.	.	.	2cc
.	.	1g	1ee
=101	=101	=101	=101
0r	0r	2r	1dd
.	.	1g	.
.	.	.	2r
.	.	2g	[2dd
=102	=102	=102	=102
0r	0r	2f	2dd]
.	.	2d	2dd
.	.	2.f	2cc
.	.	.	2a
.	.	4g	.
=103	=103	=103	=103
0r	0r	4a	2.cc
.	.	4b-	.
.	.	1cc	.
.	.	.	4dd
.	.	.	4ee
.	.	.	4ff
.	.	4b-	[2gg
.	.	4a	.
=104	=104	=104	=104
1G	0r	2g	2gg]
.	.	1b-	4ff
.	.	.	4ee
1B-	.	.	2dd
.	.	4a	[2ff
.	.	4g	.
=105	=105	=105	=105
2B-	0r	2f	4ff]
.	.	.	4ee
2B-	.	2g	2dd
2A	.	2.a	2cc
2F	.	.	[2dd
.	.	4g	.
=106	=106	=106	=106
1A	1r	2e	4dd]
.	.	.	4cc
.	.	2f#	2cc
1G	1d	1g	1b-
=107	=107	=107	=107
2r	1f	1d	0a
1d	.	.	.
.	2f	2r	.
2d	2f	[2a	.
=108	=108	=108	=108
2c	2e	2a]	2r
2A	2c	2a	1cc
1c	1e	2g	.
.	.	2e	2cc
=109	=109	=109	=109
0G	1d	1g	2b-
.	.	.	2g
.	2r	2.d	2.b-
.	[2d	.	.
.	.	4e	4cc
=110	=110	=110	=110
0r	2d]	4f	4dd
.	.	4g	4ee
.	2d	4a	4ff
.	.	4f	4dd
.	2c	2g	2ee
.	2A	[2a	[2ff
=111	=111	=111	=111
0r	1c	4a]	4ff]
.	.	4g	4ee
.	.	2e	2.ee
.	2B-	2f	.
.	.	.	4dd
.	2G	2g	[2dd
=112	=112	=112	=112
1r	1A	1e	2dd]
.	.	.	2cc
2r	1d	2f	2a
[2G	.	2g	[2b-
=113	=113	=113	=113
2G]	2r	2.d	2b-]
2G	1d	.	4a
.	.	4e	4g
2F	.	[1f	2a
2D	2d	.	[2b-
=114	=114	=114	=114
1F	2c	2f]	4b-]
.	.	.	4a
.	2A	2c	2.a
2E-	2B-	1e-	.
.	.	.	4g
2C	2c	.	[2g
=115	=115	=115	=115
0D	0A	0d	2g]
.	.	.	4f
.	.	.	4e
.	.	.	1f#
=116	=116	=116	=116
0G	0G	2r	1g
.	.	2g	.
.	.	1b-	2r
.	.	.	2dd
=117	=117	=117	=117
0r	0r	2b-	1ff
.	.	2b-	.
.	.	2a	2ff
.	.	2f	2ff
=118	=118	=118	=118
0r	1r	1a	2ee
.	.	.	2cc
.	1c	2g	1ee
.	.	[2cc	.
=119	=119	=119	=119
1r	1g	2cc]	[0dd
.	.	4b-	.
.	.	4a	.
1G	2g	1b-	.
.	2g	.	.
=120	=120	=120	=120
1d	2f	0a	0dd]
.	4d	.	.
.	4e	.	.
2d	4f	.	.
.	4g	.	.
2d	4a	.	.
.	4f	.	.
=121	=121	=121	=121
2c	2g	1r	1r
2A	1a	.	.
1B-	.	1d	1dd
.	2g	.	.
=122	=122	=122	=122
1A	1a	2e	2cc
.	.	2f	2a
1r	1r	[1g	1b-
=123	=123	=123	=123
1r	1.d	2g]	2.a
.	.	4f	.
.	.	4e	4g
2r	.	2f	2a
[2G	2d	2g	2b-
=124	=124	=124	=124
2G]	1d	2.b-	1g
2G	.	.	.
.	.	4a	.
1G	1e	2.g	1r
.	.	4f	.
=125	=125	=125	=125
1A	1c	1e	0r
1F	[1f	1r	.
=126	=126	=126	=126
1.B-	2f]	0r	0r
.	2e	.	.
.	2d	.	.
2A	2c	.	.
=127	=127	=127	=127
2G	2B-	1r	1.dd
2F	2A	.	.
[1G	2B-	[1g	.
.	4G	.	2dd
.	4A	.	.
=128	=128	=128	=128
1G]	4B-	2g]	1dd
.	4c	.	.
.	4d	2g	.
.	4B-	.	.
2C	1c	1g	1ee
[2c	.	.	.
=129	=129	=129	=129
2c]	2F	1a	1cc
2F	1f	.	.
2A	.	1f	[1ff
2B-	2B-	.	.
=130	=130	=130	=130
1G	2d	1.b-	2ff]
.	2e	.	2ee
1F	2.f	.	2dd
.	.	2a	2cc
.	4e	.	.
=131	=131	=131	=131
1G	4d	2g	1b-
.	4c	.	.
.	1d	2f	.
1A	.	1e	2a
.	2c#	.	2ee
=132	=132	=132	=132
1D	1d	2d	1ff
.	.	2a	.
1r	1r	1b-	2dd
.	.	.	2ff
=133	=133	=133	=133
0r	0r	2g	2ee
.	.	2b-	2dd
.	.	2a	2cc
.	.	2g	[2dd
=134	=134	=134	=134
1r	0r	2f	4dd]
.	.	.	4cc
.	.	2.g	4b-
.	.	.	4a
2r	.	.	2b-
.	.	4f	.
[2A	.	4e	[2cc
.	.	4d	.
=135	=135	=135	=135
2A]	0r	2e	4cc]
.	.	.	4b-
2A	.	4c	2a
.	.	4d	.
2c	.	4e	2g
.	.	4c	.
2A	.	[2f	2f
=136	=136	=136	=136
2B-	1r	2f]	1g
2c	.	2e	.
1d	2r	[1f	1f
.	[2d	.	.
=137	=137	=137	=137
0D	2d]	1f]	2r
.	2d	.	1a
.	2f	1d	.
.	2d	.	2a
=138	=138	=138	=138
1A	2e	1c	2cc
.	2f	.	2a
2G	2g	2d	2b-
2F	[2a	[2f	2cc
=139	=139	=139	=139
1B-	2a]	2f]	1.dd
.	2g	4e	.
.	.	4d	.
2.A	1a	2f	.
.	.	[2e	2cc
4G	.	.	.
=140	=140	=140	=140
2F	2r	4e]	2a
.	.	4d	.
2G	1g	1d	2b-
1E	.	.	1g
.	2g	2c#	.
=141	=141	=141	=141
1D	2f	1d	2r
.	2d	.	1dd
1r	2f	1r	.
.	2g	.	2dd
=142	=142	=142	=142
1r	2e	0r	2cc
.	2.f	.	2a
2r	.	.	2cc
.	4e	.	.
[2G	4d	.	2dd
.	4c	.	.
=143	=143	=143	=143
2G]	2d	0r	1b-
2G	4B-	.	.
.	4c	.	.
2F	4d	.	1a
.	4e	.	.
2D	[2f	.	.
=144	=144	=144	=144
2F	4f]	2r	1dd
.	4e	.	.
2G	1d	1g	.
1E	.	.	2ee
.	2c#	2g	2ee
=145	=145	=145	=145
1D	1.d	2f	4ff
.	.	.	4dd
.	.	2d	2.ff
1r	.	2f	.
.	.	.	4ee
.	2G	2g	[2dd
=146	=146	=146	=146
2r	2A	1e	2dd]
2A	2a	.	2cc#
2B-	2g	1d	1dd
2d	2f	.	.
=147	=147	=147	=147
2d	2e	1A	1r
2c#	2e	.	.
1d	1d	2r	1a
.	.	2a	.
=148	=148	=148	=148
1r	0r	2g	2b-
.	.	2f	2dd
1A	.	2e	2dd
.	.	2e	2cc#
=149	=149	=149	=149
1B-	2r	1d	1dd
.	2d	.	.
2A	1f	1r	1r
2d	.	.	.
=150	=150	=150	=150
2d	2e	0r	1r
2c	2g	.	.
1d	2g	.	1a
.	2f#	.	.
=151	=151	=151	=151
1G	1g	2r	1b-
.	.	2d	.
1r	1d	1f	2a
.	.	.	2dd
=152	=152	=152	=152
1A	1r	2e	2dd
.	.	2a	2cc#
1B-	1d	2a	1dd
.	.	2g	.
=153	=153	=153	=153
1A	2.e	1a	2.cc
.	4f	.	4dd
2G	2g	2b-	2ee
2F	2a	[2cc	2ff
=154	=154	=154	=154
1G	1g	2cc]	2ee
.	.	2b-	1dd
[1A	2f	[1a	.
.	4e	.	4cc
.	4d	.	4b
=155	=155	=155	=155
1A]	1e	1a]	1cc#
[1D	[1d	1f#	1dd
=156	=156	=156	=156
1D]	1d]	2r	2r
.	.	2d	2dd
1r	1r	2e	2cc
.	.	2f	2dd
=157	=157	=157	=157
0r	0r	2g	2b-
.	.	2e	2cc
.	.	2f	2a
.	.	4d	4dd
.	.	4e	4cc
=158	=158	=158	=158
0r	1d	4f	4dd
.	.	4g	4ee
.	.	4a	4ff
.	.	4b-	4dd
.	2c	2cc	2ee
.	2d	2a	[2ff
=159	=159	=159	=159
1r	2B-	1g	2ff]
.	2c	.	2ee
2r	2A	2.f	1ff
2d	2B-	.	.
.	.	4g	.
=160	=160	=160	=160
2c	2F	1a	0r
2d	1f	.	.
2B-	.	1g	.
2c	2e	.	.
=161	=161	=161	=161
2F	2f	1a	2r
2D	2f	.	2a
2.G	2d	2r	2.b-
.	2B-	2d	.
4G	.	.	4b-
=162	=162	=162	=162
2F	2c	2.f	2a
2BB-	2f	.	2dd
.	.	4e	.
2.BB-	2.f	2d	2.dd
.	.	2b-	.
4BB-	4f	.	4dd
=163	=163	=163	=163
2F	2f	2a	2cc
2G	2d	2g	2b-
1D	1d	2.f	2a
.	.	.	4a
.	.	4g	4b-
=164	=164	=164	=164
0r	2r	4a	4cc
.	.	4f	4a
.	2B-	2b-	2dd
.	2c	2a	4cc
.	.	.	4b-
.	2e-	[2g	4a
.	.	.	4g
=165	=165	=165	=165
2r	1d	2g]	1a
2D	.	2f#	.
2.G	1d	2g	1g
.	.	2d	.
4G	.	.	.
=166	=166	=166	=166
2F	2r	1.f	2r
2BB-	2d	.	2b-
2.BB-	2.d	.	2.b-
.	.	2f	.
4BB-	4d	.	4b-
=167	=167	=167	=167
2F	2c	2f	2a
2G	2B-	2d	2g
[1D	1A	1d	2f
.	.	.	4f
.	.	.	4g
=168	=168	=168	=168
2D]	1d	1f	4a
.	.	.	4f
2BB-	.	.	2b-
2C	4c	2e-	4a
.	4B-	.	4g
2E-	4A	2c	[2g
.	4G	.	.
=169	=169	=169	=169
1D	1A	1d	2g]
.	.	.	2f#
2G	2G	2r	[1g
2C	2c	2e-	.
=170	=170	=170	=170
2.C	2.c	2.e-	0g_
4C	4c	4e-	.
2G	2B-	2d	.
2C	2e-	2c	.
=171	=171	=171	=171
1G	1d	2B-	0g_
.	.	4B-	.
.	.	4c	.
2.G	2.B-	4d	.
.	.	4B-	.
.	.	2e-	.
4A	4c	.	.
=172	=172	=172	=172
2B-	4d	2d	1g]
.	4B-	.	.
2c	2e-	1c	.
1G	1d	.	[1g
.	.	2B-	.
=173	=173	=173	=173
1C	1c	1e-	1g_
[1G	[1B	[1d	1g_
=174	=174	=174	=174
1G]	1B]	1d]	1g]
==	==	==	==
*-	*-	*-	*-
!!!CDT: 1525/^1526/-1594/2/2
!!!OCY: Italia
!!!AGN: Mass (Parody)
!!!AST: renaissance, vocal
!!!ASW: Madrigal 1542 (Ferabosco)
!!!PWK: Masses, Book 3
!!!RNB: Cadence finals: A
!!!YOR: Le Opere Complete, v. 6, p. 30
!!!YOO: Rome, Italy: Fratelli Scalera
!!!END: 1992//
!!!EED: John Miller
!!!YEC: Copyright 2000, John Miller
!!!YEN: United States of America
!!!YEM: Rights to all derivative electronic formats reserved.
!!!YEM: Refer to licensing agreement for further details.
!!!YEM: This file must be accompanied by the licensing agreement.
!!!YEM: A copy of the licensing agreement may be found at http://www.music-cog.ohio-state.edu/HumdrumDatabases/Palestrina/license.txt
!!!EMD: converted to Humdrum by Bret Aarden
